dist/img/svg/promo.svg

<svg width="97" height="15" viewBox="0 0 97 15" fill="none" xmlns="http://www.w3.org/2000/svg">
<path fill-rule="evenodd" clip-rule="evenodd" d="M22.7113 11.4778H20.8916V2.71387H24.8315V4.32759H22.7085L22.7113 11.4778ZM28.966 2.71387H33.2091V4.32759H30.8601V6.01857H32.6798V7.6323H30.8601V9.86691H33.3608V11.4806H28.966V2.71387ZM40.9402 7.6323H39.1977V11.4749H37.3035V2.71387H39.1977V6.01857H40.9402V2.71387H42.7599V11.4778H40.9402V7.6323ZM46.8686 2.71387H51.1118V4.32759H48.7627V6.01857H50.5825V7.6323H48.7627V9.86691H51.2634V11.4806H46.8686V2.71387ZM58.6139 5.24891C58.6139 4.8512 58.3478 4.32759 57.9329 4.32759H57.086V7.17164H57.9444C58.3621 7.17164 58.6253 6.42773 58.6253 6.09583L58.6139 5.24891ZM58.385 8.72242H57.086V11.4892H55.1919V2.71387H58.2992C58.5851 2.71979 58.867 2.78228 59.1287 2.89774C59.3903 3.01319 59.6265 3.17933 59.8237 3.38655C60.0208 3.59377 60.1749 3.83798 60.2771 4.10508C60.3794 4.37218 60.4277 4.65688 60.4193 4.94275V6.32759C60.4308 7.29182 59.8871 8.72242 58.385 8.72242ZM66.2247 5.03431L65.6181 8.26177H66.8313L66.2247 5.03431ZM67.1346 9.72385H65.3149L65.0116 11.4921H63.1174L65.0116 2.71387H67.4379L69.332 11.4778H67.4379L67.1346 9.72385ZM77.2461 11.4921H72.5366V2.71387H74.4307V9.86691H76.0988V2.71387H77.9929V9.86691H78.7511V13.0142H77.2347L77.2461 11.4921ZM85.9185 6.80254L84.0244 10.5679V11.4892H82.1302V2.71387H84.0244V7.4034L85.9185 3.63804V2.71387H87.8126V11.4778H85.9185V6.80254ZM95.1059 4.3419H94.196C93.867 4.3419 93.5894 4.7768 93.5894 5.03431V6.03288C93.5894 6.319 93.8298 6.95419 94.1187 6.95419H95.103L95.1059 4.3419ZM95.1059 11.4949V8.40197H94.4993L93.2861 11.4778H91.2403L92.9084 8.01856C92.9084 8.01856 91.764 7.5064 91.764 5.94418V4.79969C91.764 3.60656 92.5966 2.72531 93.9614 2.72531H97V11.4892L95.1059 11.4949Z" fill="white"/>
<path d="M1.93141 12.523C0.691096 11.1474 0.0031364 9.36122 1.06978e-05 7.50835C-0.003115 5.65549 0.678814 3.86699 1.91448 2.48725L5.05859 5.634V9.39073L1.93141 12.523ZM9.94647 14.5998V9.12689H5.87847V5.86637H14.8271C15.5043 8.88725 14.2563 12.9998 9.94647 14.5998ZM9.94647 5.06274V0.412811C11.0249 0.781119 12.0048 1.39168 12.811 2.1977C13.6171 3.00371 14.2282 3.98377 14.5973 5.06274H9.94647ZM5.62211 5.06274L2.478 1.91599C3.86958 0.668195 5.67653 -0.0146209 7.54485 0.00131372C8.08311 -0.0101447 8.62034 0.0533992 9.14109 0.190118V5.06274H5.62211ZM2.48042 13.0724L5.62453 9.94989H9.14109V14.8225C7.97177 15.0809 6.7578 15.0569 5.59958 14.7526C4.44135 14.4482 3.37216 13.8723 2.48042 13.0724Z" fill="white"/>
</svg>

<svg width="97" height="15" viewBox="0 0 97 15" fill="none" xmlns="http://www.w3.org/2000/svg"><path fill-rule="evenodd" clip-rule="evenodd" d="M22.711 11.478h-1.82V2.714h3.94v1.614H22.71l.002 7.15zm6.255-8.764h4.243v1.614H30.86v1.69h1.82v1.614h-1.82v2.235h2.5v1.614h-4.394V2.714zM40.94 7.632h-1.742v3.843h-1.895V2.714h1.895v3.305h1.742V2.714h1.82v8.764h-1.82V7.632zm5.929-4.918h4.243v1.614h-2.35v1.69h1.82v1.614h-1.82v2.235h2.501v1.614H46.87V2.714zm11.745 2.535c0-.398-.266-.921-.681-.921h-.847v2.844h.858c.418 0 .681-.744.681-1.076l-.011-.847zm-.229 3.473h-1.299v2.767h-1.894V2.714h3.107a2.166 2.166 0 012.12 2.229v1.385c.012.964-.532 2.394-2.034 2.394zm7.84-3.688l-.607 3.228h1.213l-.606-3.228zm.91 4.69h-1.82l-.303 1.768h-1.895l1.895-8.778h2.426l1.894 8.764h-1.894l-.303-1.754zm10.111 1.768h-4.71V2.714h1.895v7.153h1.668V2.714h1.894v7.153h.758v3.147h-1.516l.011-1.522zm8.672-4.69l-1.894 3.766v.921H82.13V2.714h1.894v4.69l1.894-3.766v-.924h1.895v8.764h-1.895V6.803zm9.188-2.46h-.91c-.329 0-.607.435-.607.692v.999c0 .286.24.921.53.921h.984l.003-2.612zm0 7.153V8.402h-.607l-1.213 3.076H91.24l1.668-3.46s-1.144-.512-1.144-2.074V4.8c0-1.193.833-2.075 2.197-2.075H97v8.764l-1.894.006z" fill="#fff"/><path d="M1.931 12.523a7.508 7.508 0 01-.017-10.036L5.06 5.634v3.757l-3.13 3.132zM9.946 14.6V9.127H5.878v-3.26h8.95c.676 3.02-.572 7.133-4.882 8.733zm0-9.537V.413a7.463 7.463 0 014.651 4.65h-4.65zm-4.324 0L2.478 1.916A7.494 7.494 0 017.545.001a5.8 5.8 0 011.596.19v4.872H5.622zm-3.142 8.01L5.625 9.95H9.14v4.873a7.537 7.537 0 01-6.66-1.75z" fill="#fff"/></svg>
